!!!SOCIAL_FUNCTION:	songs of war
!!!PDT:	1913
!!!OTL: No_1_Odjib'we's_Dream_Song.krn
!!!REG: Great_Lakes
!!!LANG: Non-Tone
!!!LING_GROUP: Algonquin
**kern
*staff1
*clefF4
*k[b-e-]
*M3/4
8.d\L
16d\Jk
=1
4d\
4B-\
8c\L
8B-\J
=2
4B-\
4G;\
8.d\L
16d\Jk
=3
4d\
4B-\
8c\L
8B-\J
=4
4B-\
8.G\L
16G\Jk
8.G\L
16G\Jk
=5||
*M2/4
8B-\L
8G\J
8G\L
8G\J
=6
8F\L
8F\J
8F\L
8F\J
=7
4D\
8BB-/L
8BB-/J
=8||
*M3/4
4C/
4BB-/
8C/L
8BB-/J
=9
*M2/4
4BB-/
4GG/
==
*-
